X: 33101
T: Prince Of Orange, The
R: jig
M: 6/8
K: Dmajor
|:A|D2 F A2 d|f2 a ecA|B2 c d2 B|A2 G FGE|
D2 F A2 d|f2 a ecA|Bcd c2 e|d3- d2:|
|:A|e2 e dcB|A2 ^G Ace|g2 e f2 d|c2 e AB/c/d|
efe d2 B|A^GA Ac/d/e|g2 e fed|1 edc d2:|2 edc BAG||
|:F3 G3|A2 d dcB|ADF AGF|EBA GFE|
F^EF GFG|B2 A AdA|BdB cec|1 d3 dAG:|2 d3- d2||

